icons/closed-captioning-line.svg

<svg viewBox="0 0 24 24" fill="currentColor" xmlns="http://www.w3.org/2000/svg"><path d="M21 3C21.5523 3 22 3.44772 22 4V20C22 20.5523 21.5523 21 21 21H3C2.44772 21 2 20.5523 2 20V4C2 3.44772 2.44772 3 3 3H21ZM20 5H4V19H20V5ZM9 8C10.1045 8 11.1049 8.44841 11.829 9.173L10.4153 10.5866C10.0534 10.2241 9.55299 10 9 10C7.895 10 7 10.895 7 12C7 13.105 7.895 14 9 14C9.5525 14 10.0525 13.7762 10.4144 13.4144L11.828 14.828C11.104 15.552 10.104 16 9 16C6.792 16 5 14.208 5 12C5 9.792 6.792 8 9 8ZM16 8C17.1045 8 18.1049 8.44841 18.829 9.173L17.4153 10.5866C17.0534 10.2241 16.553 10 16 10C14.895 10 14 10.895 14 12C14 13.105 14.895 14 16 14C16.5525 14 17.0525 13.7762 17.4144 13.4144L18.828 14.828C18.104 15.552 17.104 16 16 16C13.792 16 12 14.208 12 12C12 9.792 13.792 8 16 8Z"/></svg>

<svg xmlns="http://www.w3.org/2000/svg" viewBox="0 0 24 24">
    <g>
        <path fill="none" d="M0 0H24V24H0z"/>
        <path d="M21 3c.552 0 1 .448 1 1v16c0 .552-.448 1-1 1H3c-.552 0-1-.448-1-1V4c0-.552.448-1 1-1h18zm-1 2H4v14h16V5zM9 8c1.105 0 2.105.448 2.829 1.173l-1.414 1.414C10.053 10.224 9.553 10 9 10c-1.105 0-2 .895-2 2s.895 2 2 2c.553 0 1.053-.224 1.414-.586l1.414 1.414C11.104 15.552 10.104 16 9 16c-2.208 0-4-1.792-4-4s1.792-4 4-4zm7 0c1.105 0 2.105.448 2.829 1.173l-1.414 1.414C17.053 10.224 16.553 10 16 10c-1.105 0-2 .895-2 2s.895 2 2 2c.552 0 1.052-.224 1.414-.586l1.414 1.414C18.104 15.552 17.104 16 16 16c-2.208 0-4-1.792-4-4s1.792-4 4-4z"/>
    </g>
</svg>
